svg/monica-light.svg

<svg xmlns="http://www.w3.org/2000/svg" xml:space="preserve" viewBox="0 0 512 512"><path d="M477.3 184.1c18.4-13.5 34.7-36.4 34.8-65 0-47-40.1-94.7-85.1-94.7-32.7 0-68.5 5.2-85.7 26-25.3-8.6-52.7-13-81.2-13-31.2 0-61 4.6-88.4 14.2-16.9-21.8-53.4-27.2-86.7-27.2C40.1 24.3 0 72 0 119c0 29.8 17.6 53.3 36.8 66.6-9.1 22.8-16.2 48.4-20.8 77-25.7 157.6 124.3 225.1 244.1 225.1s252.8-77 236-225.1c-3.3-28.9-9.7-55.1-18.8-78.5M258.5 444.4c-96.1 0-216.4-54.1-195.8-180.5S162.4 83.4 258.5 83.4c96.2 0 175.8 61.7 189.3 180.5s-93.2 180.5-189.3 180.5m92.6-250.7c-37.4 0-62.2 33.4-62.2 79.7s38.9 90.6 73 82.4c34.1-8.1 48.3-22.5 48.3-68.8s-21.7-93.3-59.1-93.3m14.5 95.7c-4.2 5.3-6.9 7.7-16.2 7.7-19.7 0-31.9-15.1-31.9-34.8s3.8-34.8 23.5-34.8 29.8 10.9 31.7 34.8c1.1 14.2-2.4 21.1-7.1 27.1m-203.4-95.7c-37.4 0-59.1 47-59.1 93.3s14.2 60.7 48.3 68.8c34.1 8.2 73-36.1 73-82.4s-24.8-79.7-62.2-79.7m1.7 103.4c-9.3 0-12-2.4-16.2-7.7-4.7-6-8.2-12.9-7.1-27.1 1.9-23.9 12-34.8 31.7-34.8s23.5 15.1 23.5 34.8-12.2 34.8-31.9 34.8m130.2 50.6c0 11.7-18 38.9-36.5 38.9s-37-27.2-37.1-38.9c0-11.7 18.2-13.6 36.8-13.6s36.8 1.9 36.8 13.6" style="fill-rule:evenodd;clip-rule:evenodd;fill:#fff"/></svg>

<?xml version="1.0" encoding="utf-8"?>
<!-- Generator: Adobe Illustrator 28.2.0, SVG Export Plug-In . SVG Version: 6.00 Build 0)  -->
<svg version="1.1" id="Layer_1" xmlns="http://www.w3.org/2000/svg" xmlns:xlink="http://www.w3.org/1999/xlink" x="0px" y="0px"
	 viewBox="0 0 512 512" style="enable-background:new 0 0 512 512;" xml:space="preserve">
<style type="text/css">
	.st0{fill-rule:evenodd;clip-rule:evenodd;fill:#FFFFFF;}
</style>
<path class="st0" d="M477.3,184.1c18.4-13.5,34.7-36.4,34.8-65c0-47-40.1-94.7-85.1-94.7c-32.7,0-68.5,5.2-85.7,26
	c-25.3-8.6-52.7-13-81.2-13c-31.2,0-61,4.6-88.4,14.2C154.8,29.8,118.3,24.4,85,24.4C40.1,24.3,0,72,0,119
	c0,29.8,17.6,53.3,36.8,66.6c-9.1,22.8-16.2,48.4-20.8,77C-9.7,420.2,140.3,487.7,260.1,487.7s252.8-77,236-225.1
	C492.8,233.7,486.4,207.5,477.3,184.1z M258.5,444.4c-96.1,0-216.4-54.1-195.8-180.5S162.4,83.4,258.5,83.4
	c96.2,0,175.8,61.7,189.3,180.5S354.6,444.4,258.5,444.4z M351.1,193.7c-37.4,0-62.2,33.4-62.2,79.7s38.9,90.6,73,82.4
	c34.1-8.1,48.3-22.5,48.3-68.8S388.5,193.7,351.1,193.7z M365.6,289.4c-4.2,5.3-6.9,7.7-16.2,7.7c-19.7,0-31.9-15.1-31.9-34.8
	c0-19.7,3.8-34.8,23.5-34.8s29.8,10.9,31.7,34.8C373.8,276.5,370.3,283.4,365.6,289.4z M162.2,193.7c-37.4,0-59.1,47-59.1,93.3
	s14.2,60.7,48.3,68.8c34.1,8.2,73-36.1,73-82.4S199.6,193.7,162.2,193.7z M163.9,297.1c-9.3,0-12-2.4-16.2-7.7
	c-4.7-6-8.2-12.9-7.1-27.1c1.9-23.9,12-34.8,31.7-34.8s23.5,15.1,23.5,34.8S183.6,297.1,163.9,297.1z M294.1,347.7
	c0,11.7-18,38.9-36.5,38.9s-37-27.2-37.1-38.9c0-11.7,18.2-13.6,36.8-13.6S294.1,336,294.1,347.7z"/>
</svg>
